X:10
T:Final Boss - Epic Showdown
C:AI Composer
M:4/4
L:1/8
Q:1/4=160
K:Gm
V:1 name="Intense"
|: "Gm"G2 B2 d2 g2 | "Eb"g2 e2 B2 G2 | "D"f2 d2 A2 F2 | "Gm"g2 d2 B2 G2 :|
|: "Cm"c2 e2 g2 c'2 | "Bb"b2 f2 d2 B2 | "F"a2 f2 c2 A2 | "D"d2 f2 a2 d'2 :|
|: "Gm"d'2 b2 g2 d2 | B2 G2 D2 B,2 | "Eb"e2 g2 b2 e'2 | g'2 e'2 b2 g2 |
   "Cm"c'2 g2 e2 c2 | "D"d'2 a2 f2 d2 | "Gm"g2 d2 B2 G2 | G4 G4 :|
|: "Gm"g4 d'4 | b2 g2 d2 B2 | "F"f4 c'4 | a2 f2 c2 A2 |
   "Eb"e4 b4 | g2 e2 B2 G2 | "D"d4 a4 | f2 d2 A2 F2 |
   "Gm"G2 B2 d2 g2 | "Eb"b2 g2 e2 B2 | "D"a2 f2 d2 A2 | "Gm"g4 g4 :|